!!!SOCIAL_FUNCTION:	war songs
!!!PDT:	1929
!!!OTL: No_130_Opening_Song_of_the_War_Camp.krn
!!!REG: Southwest
!!!LANG: Non-Tone
!!!LING_GROUP: Uto-Aztecan
**kern
*staff1
*clefF4
*k[f#]
*M2/4
4G\
=1
4d\
4d\
=2||
*M3/4
4d\
8B\L
8A\J
8A\
8r
=3!|:
*M2/4
4d\
4d\
=4
8B\L
8A\J
4A\
=5
4G\
8E\L
8D\J
=6||
*M3/4
4A\
8A\
8r
8c\L
8A\J
=7
4d\
4c\
4A\
=8||
*M2/4
4G\
4E\
=9
8A\L
8G\J
4A\
=10||
*M3/4
8G\L
8G\J
16E\LL
16D\JJ
8r
8A\L
8A\J
=11||
*M2/4
4G\
4E\
=12
4G\
4E\
=13
4G\
4r
==:|!
*-
